X: 140046
T: The GEESE IN THE BOG
Q: "Irish Jig."
R: Jig.
%R: jig
B: James Kerr "Merry Melodies" v.1 p.40 s.0 #46
Z: 2016 John Chambers <jc:trillian.mit.edu>
M: 6/8
L: 1/8
K: D
|:\
vAdd fdB | AFA AFA | Add fdB | AFA uB2uA |\
Add fdB | AFA DFA | gfe fdB | AFA BdB :|
|:\
AFE DFE | DDD DdB | AFD DFA | BBA BdB |\
AFE DFE | DDD Agf | gfe fdB | AFA BdB :|

%%sep 1 1 500
%%sep 1 1 500

